X:1
T:Title
%%score { ( 1 3 ) | ( 2 4 ) }
L:1/8
M:4/4
K:Eb
V:1 treble nm="Grand Piano"
V:3 treble 
V:2 bass 
V:4 bass 
V:1
 z4 z2[Q:1/4=88] GF | E>E EE E<F G[FA] |[M:3/4] [GB]>[GB] [GB][EG] [GB]2 |[M:1/4] [GB][GB] | %4
[M:4/4] c>c cc [Ac]<[GB] [GB]G |[M:7/8] F>FG F [DB]3 |[M:1/4] [DG][DF] |[M:4/4] E>E EE E<F G[FA] | %8
[M:3/4] [GB]>[GB] [GB][EG] [GB]2 |[M:1/4] [GB][GB] |[M:4/4] c>d ec [EGB]<[B,EG] [B,E][CEF] | %11
[M:7/8] [B,EG]<[EB][EG]>[DF] E3 |[M:1/4] FG |[M:4/4] [DFA]<[DFA] [DFA]>[DFA] [DFA]2 GA | %14
 [GB]<[GB] [GB]>[GB] [GB]2 BB | z =A3 d4 |[M:9/8] B6- B z z |[M:3/4] G>F G[FA] [GB]2 | %18
[M:1/4] [EG][EG] |[M:4/4] [EA]>[EG] [EA][EB] [Ec]2 [Ad][Ad] | [Ge] [GB]3 [EG]3 F | %21
[M:7/8] E-E-E- E- E3 |] %22
V:2
 z4 z2 [E,B,E][E,A,E] | [E,G,]>[E,G,B,] [E,G,B,][E,G,B,] G,<[E,A,E] [E,B,E][E,B,] | %2
[M:3/4] [E,E]>[E,E] [E,E][E,B,] [E,E]2 |[M:1/4] [E,E][E,E] | %4
[M:4/4][K:treble] [A,EA]>[A,EA] [A,EA][A,EA][K:bass] [E,E]<[E,E] [E,E][E,B,E] | %5
[M:7/8] [F,=A,E]>[F,A,E][F,A,E] [F,E] [B,,F,]3 |[M:1/4] [B,,B,][B,,A,] | %7
[M:4/4] [E,G,]>[G,B,] [E,G,B,][E,G,B,] [E,G,]<[E,A,E] [E,B,E][E,B,] | %8
[M:3/4] [E,E]>[E,E] [E,E][E,B,] [E,E]2 |[M:1/4] [E,E][E,E] | %10
[M:4/4][K:treble] [A,EA]>[A,DA] [A,CA][A,EA][K:bass] E,<E, G,,A,, | %11
[M:7/8] B,,<[B,,G,][B,,B,]>[B,,A,] [E,G,]3 |[M:1/4] DE |[M:4/4] B,,<B,, B,,>B,, B,,2[K:treble] EF | %14
 [E,E]<[E,E] [E,E]>[E,E] [E,E]2[K:treble] GG | z F3[K:bass] F4 | %16
[M:9/8] [B,,F,]<[B,,F,][B,,G,]- [B,,G,]/[B,,G,]/ [B,,A,]2- [B,,A,][B,,F,][B,,B,] | %17
[M:3/4] [E,B,E]>[E,B,E] [E,B,E][E,E] [E,E]2 |[M:1/4] [E,B,][_D,B,] | %19
[M:4/4] [C,A,]>[C,A,] [C,A,][B,,G,] [A,,A,]2 [F,B,][F,B,] | [E,B,] [E,E]3 [B,,B,]4 | %21
[M:7/8] [E,G,B,]<[E,G,][E,A,]>[E,A,] [E,G,]3 |] %22
V:3
 x8 | x8 |[M:3/4] x6 |[M:1/4] x2 |[M:4/4] x8 |[M:7/8] x7 |[M:1/4] x2 |[M:4/4] x8 |[M:3/4] x6 | %9
[M:1/4] x2 |[M:4/4] x8 |[M:7/8] x7 |[M:1/4] x2 |[M:4/4] x8 | x8 | .=A2 CC z/ B,3/2 B,c | %16
[M:9/8] D<DE- E/E/ F2- F[DB][DA] |[M:3/4] x6 |[M:1/4] x2 |[M:4/4] x8 | x8 | %21
[M:7/8] z/ B,3/2C>C B,3 |] %22
V:4
 x8 | x8 |[M:3/4] x6 |[M:1/4] x2 |[M:4/4][K:treble] x4[K:bass] x4 |[M:7/8] x7 |[M:1/4] x2 | %7
[M:4/4] x8 |[M:3/4] x6 |[M:1/4] x2 |[M:4/4][K:treble] x4[K:bass] x4 |[M:7/8] x7 |[M:1/4] x2 | %13
[M:4/4] x6[K:treble] x2 | x6[K:treble] x2 | .F2[K:bass] F,F, [F,B,]<F, .F,2 |[M:9/8] x9 | %17
[M:3/4] x6 |[M:1/4] x2 |[M:4/4] x8 | x8 |[M:7/8] x7 |] %22

